svgs/thin/eject.svg

<svg xmlns="http://www.w3.org/2000/svg" viewBox="0 0 448 512"><!--! Font Awesome Pro 6.3.0 by @fontawesome - https://fontawesome.com License - https://fontawesome.com/license (Commercial License) Copyright 2023 Fonticons, Inc. --><path d="M439.1 431.1H8.039c-4.422 0-7.998 3.598-7.998 8.012C.041 444.4 3.617 448 8.039 448h431.9c4.422 0 7.998-3.6 7.998-8.012C447.1 435.6 444.4 431.1 439.1 431.1zM34.14 352.8h379.7c13.76 0 25.73-7.385 31.23-19.25c5.123-11.05 3.42-23.29-4.547-32.71L250.7 75.55c-12.97-15.4-40.37-15.4-53.34 0L7.461 300.8c-7.967 9.42-9.67 21.66-4.547 32.71C8.414 345.4 20.38 352.8 34.14 352.8zM19.68 311.1l189.9-225.3C213 81.81 218.3 79.46 224 79.46s10.1 2.348 14.45 6.416l189.9 225.3c3.891 4.633 4.719 10.33 2.266 15.62c-2.25 4.818-7.811 9.982-16.73 9.982H34.14c-8.922 0-14.48-5.164-16.73-9.982C14.96 321.5 15.79 315.8 19.68 311.1z"/></svg>

<svg xmlns="http://www.w3.org/2000/svg" viewBox="0 0 448 512"><!-- Font Awesome Pro 6.0.0-alpha2 by @fontawesome - https://fontawesome.com License - https://fontawesome.com/license (Commercial License) --><path d="M439.961 431.977H8.039C3.617 431.977 0.041 435.574 0.041 439.988C0.041 444.4 3.617 448 8.039 448H439.961C444.383 448 447.959 444.4 447.959 439.988C447.959 435.574 444.383 431.977 439.961 431.977ZM34.145 352.766H413.855C427.619 352.766 439.586 345.381 445.086 333.52C450.209 322.473 448.506 310.234 440.539 300.814L250.668 75.547C237.701 60.15 210.299 60.15 197.332 75.547L7.461 300.814C-0.506 310.234 -2.209 322.473 2.914 333.52C8.414 345.381 20.381 352.766 34.145 352.766ZM19.678 311.143L209.549 85.875C213.002 81.807 218.268 79.459 224 79.459S234.998 81.807 238.451 85.875L428.322 311.143C432.213 315.775 433.041 321.471 430.588 326.76C428.338 331.578 422.777 336.742 413.855 336.742H34.145C25.223 336.742 19.662 331.578 17.412 326.76C14.959 321.471 15.787 315.775 19.678 311.143Z"/></svg>
